48x48/places/folder-indigo-projects.svg

<svg xmlns="http://www.w3.org/2000/svg" width="48" height="48" version="1"><rect style="opacity:.2" width="40" height="26" x="4" y="17" rx="2" ry="2"/><path style="fill:#3f51b5" d="M4 34c0 1.108.892 2 2 2h36c1.108 0 2-.892 2-2V12c0-1.108-.892-2-2-2H24c-3 0-4-4-7-4H6c-1.108 0-2 .892-2 2"/><rect style="opacity:.2" width="40" height="26" x="4" y="15" rx="2" ry="2"/><rect style="fill:#f4f4f7" width="36" height="16" x="6" y="13" rx="2" ry="2"/><rect style="fill:#8265ff" width="40" height="26" x="4" y="16" rx="2" ry="2"/><path style="opacity:.1;fill:#f4f4f7" d="M6 6c-1.108 0-2 .892-2 2v1c0-1.108.892-2 2-2h11c3 0 4 4 7 4h18c1.108 0 2 .892 2 2v-1c0-1.108-.892-2-2-2H24c-3 0-4-4-7-4z"/><path style="fill:#202543" d="M27 21c-.35.13-.71.299-1 .539-1.38 1.11-1.299 3.02.051 4.16.28.24.609.401.949.551v2.346a6.405 6.405 0 0 1 2.248 1.615c.304.342.543.72.752 1.111V26.25c.34-.13.659-.321.949-.551 1.38-1.12 1.391-2.949.051-4.099a3.91 3.91 0 0 0-1-.6v2.25c0 .46-.45.75-1 .75h-1c-.56 0-1-.29-1-.75zm-3 8c-4 0-6 3-6 6h-1.75c-.25 0-.25.25-.25.25v1.5c0 .25.25.25.25.25h15.5s.25 0 .25-.25v-1.5s0-.25-.25-.25H30c0-3-2-6-6-6zm0 3c2.35 0 3 1.76 3 3h-6c0-1.2.7-3 3-3z"/></svg>

<svg xmlns="http://www.w3.org/2000/svg" width="48" height="48" version="1">
 <rect style="opacity:0.2" width="40" height="26" x="4" y="17" rx="2" ry="2"/>
 <path style="fill:#3f51b5" d="M 4,34 C 4,35.108 4.892,36 6,36 H 42 C 43.108,36 44,35.108 44,34 V 12 C 44,10.892 43.108,10 42,10 H 24 C 21,10 20,6 17,6 H 6 C 4.892,6 4,6.892 4,8"/>
 <rect style="opacity:0.2" width="40" height="26" x="4" y="15" rx="2" ry="2"/>
 <rect style="fill:#f4f4f7" width="36" height="16" x="6" y="13" rx="2" ry="2"/>
 <rect style="fill:#8265ff" width="40" height="26" x="4" y="16" rx="2" ry="2"/>
 <path style="opacity:0.1;fill:#f4f4f7" d="M 6,6 C 4.892,6 4,6.892 4,8 V 9 C 4,7.892 4.892,7 6,7 H 17 C 20,7 21,11 24,11 H 42 C 43.108,11 44,11.892 44,13 V 12 C 44,10.892 43.108,10 42,10 H 24 C 21,10 20,6 17,6 Z"/>
 <path style="fill:#202543" d="M 27,21 C 26.65,21.13 26.29,21.299 26,21.539 24.62,22.649 24.701,24.559 26.051,25.699 26.331,25.939 26.66,26.1 27,26.25 V 28.596 C 27.893,28.983 28.651,29.54 29.248,30.211 29.552,30.553 29.791,30.931 30,31.322 V 26.25 C 30.34,26.12 30.659,25.929 30.949,25.699 32.329,24.579 32.34,22.75 31,21.6 30.71,21.36 30.35,21.14 30,21 V 23.25 C 30,23.71 29.55,24 29,24 H 28 C 27.44,24 27,23.71 27,23.25 Z M 24,29 C 20,29 18,32 18,35 H 16.25 C 16,35 16,35.25 16,35.25 V 36.75 C 16,37 16.25,37 16.25,37 H 31.75 C 31.75,37 32,37 32,36.75 V 35.25 C 32,35.25 32,35 31.75,35 H 30 C 30,32 28,29 24,29 Z M 24,32 C 26.35,32 27,33.76 27,35 H 21 C 21,33.8 21.7,32 24,32 Z"/>
</svg>
